brandFactory_export/2.Regular/Restaurante_2Regular.svg

<?xml version="1.0" encoding="UTF-8"?>
<svg width="24px" height="24px" viewBox="0 0 24 24" version="1.1" xmlns="http://www.w3.org/2000/svg" xmlns:xlink="http://www.w3.org/1999/xlink">
    <title>2.Regular/Restaurante_2Regular</title>
    <g id="Symbols" stroke="none" stroke-width="1" fill="none" fill-rule="evenodd">
        <g id="2.Regular/Restaurante_2Regular" fill="#5CB615" fill-rule="nonzero">
            <path d="M3.49915966,10.3294118 C3.46890756,10.2016807 3.47226891,10.0638655 3.51932773,9.93277311 C3.61680672,9.64033613 3.88235294,9.44201681 4.18823529,9.44201681 L4.94453782,9.44201681 L4.94453782,7.60336134 L1.43193277,7.60336134 L1.43193277,9.43865546 L2.25546218,9.43865546 C2.29579832,9.43865546 2.3394958,9.44201681 2.38319328,9.4487395 C2.76302521,9.51932773 3.05882353,9.88907563 3.00168067,10.2722689 C2.50756303,13.6168067 1.67058824,20.6218487 1.6605042,20.692437 C1.66386555,21.8857143 2.45378151,22.1647059 3.11596639,22.1747899 L3.30084034,22.1747899 C3.95966387,22.1613445 4.74957983,21.8823529 4.74957983,20.6184874 C4.74285714,20.6252101 4.16470588,14.810084 3.49915966,10.3294118 L3.49915966,10.3294118 Z M5.66386555,0.00336134454 C6.05714286,0.00336134454 6.37647059,0.32605042 6.37647059,0.72605042 L6.37647059,9.6 C6.37647059,10.3361345 5.94621849,10.887395 5.37815126,10.887395 L5.01848739,10.887395 C5.64369748,15.2773109 6.16134454,20.5008403 6.16806723,20.5546218 C6.17142857,22.8 4.63529412,23.6 3.3210084,23.6235294 L3.08235294,23.6235294 C1.77478992,23.6067227 0.235294118,22.8033613 0.235294118,20.6117647 C0.248739496,20.4672269 0.968067227,14.4470588 1.46890756,10.8840336 L1.00504202,10.887395 C0.433613445,10.887395 0.00336134454,10.3361345 0.00336134454,9.6 L0.00336134454,0.769747899 C0.00336134454,0.373109244 0.322689076,0.0235294118 0.715966387,0.0235294118 C1.1092437,0.0235294118 1.42857143,0.32605042 1.42857143,0.722689076 L1.42857143,6.16470588 L2.41344538,6.16470588 L2.41344538,0.722689076 C2.41344538,0.32605042 2.73277311,0 3.12605042,0 C3.51932773,0 3.83865546,0.322689076 3.83865546,0.722689076 L3.83865546,6.16470588 L4.94453782,6.16470588 L4.9512605,0.72605042 C4.9512605,0.32605042 5.27058824,0.00336134454 5.66386555,0.00336134454 L5.66386555,0.00336134454 Z M12.9344538,22.1815126 C13.5697479,22.1680672 14.3327731,21.8991597 14.3327731,20.6789916 C14.3294118,20.6789916 13.9663866,17.0386555 13.492437,13.3680672 C13.4823529,13.3176471 13.4756303,13.2638655 13.4756303,13.210084 L13.4756303,13.1865546 C13.4756303,12.9512605 13.5865546,12.7428571 13.7579832,12.6117647 L13.7579832,1.54957983 C12.3294118,1.8789916 11.2605042,3.17310924 11.2605042,4.71932773 L11.2605042,12.487395 L11.5764706,12.487395 C11.9697479,12.487395 12.2890756,12.810084 12.2890756,13.210084 C12.2890756,13.2403361 12.2857143,13.3109244 12.2823529,13.3445378 C11.8352941,16.7092437 11.3546218,20.7563025 11.3546218,20.7563025 C11.3613445,21.9058824 12.1210084,22.1747899 12.7563025,22.1815126 L12.9344538,22.1815126 L12.9344538,22.1815126 Z M14.9714286,13.7176471 C15.4151261,17.2369748 15.7478992,20.5747899 15.7512661,20.6084034 C15.7546218,22.810084 14.2487395,23.5966387 12.9579832,23.6235294 L12.7327731,23.6235294 C11.4420168,23.6067227 9.93277311,22.8235294 9.93277311,20.6689076 C9.93613445,20.5882353 10.3495798,17.1226891 10.7663866,13.9327731 L10.5445378,13.9327731 C10.1512605,13.9327731 9.83193277,13.610084 9.83193277,13.210084 L9.83193277,4.71932773 C9.83193277,2.13109244 11.912605,0.0268907563 14.4672269,0.0268907563 C14.8605042,0.0268907563 15.1798319,0.349579832 15.1798319,0.749579832 L15.1798319,13.210084 C15.1798319,13.4084034 15.0991597,13.5865546 14.9714286,13.7176471 Z" id="Restaurante_2Regular"></path>
        </g>
    </g>
</svg>

<svg width="24" height="24" viewBox="0 0 24 24" xmlns="http://www.w3.org/2000/svg"><path d="M3.5 10.33a.697.697 0 01.02-.397.706.706 0 01.668-.491h.757V7.603H1.432V9.44h.823a.85.85 0 01.128.01c.38.07.676.44.619.823-.494 3.345-1.331 10.35-1.341 10.42.003 1.194.793 1.473 1.455 1.483h.185c.659-.014 1.449-.293 1.449-1.557-.007.007-.585-5.808-1.25-10.289zM5.663.002c.393 0 .712.323.712.723V9.6c0 .736-.43 1.287-.998 1.287h-.36c.626 4.39 1.143 9.614 1.15 9.668.003 2.245-1.533 3.045-2.847 3.069h-.239c-1.307-.017-2.847-.82-2.847-3.012.014-.145.733-6.165 1.234-9.728l-.464.003c-.571 0-1.002-.55-1.002-1.287V.77c0-.397.32-.746.713-.746a.7.7 0 01.713.699v5.442h.984V.723A.72.72 0 013.126 0c.393 0 .713.323.713.723v5.442h1.106L4.95.726c0-.4.32-.723.713-.723zm7.27 22.179c.636-.014 1.399-.283 1.399-1.503-.004 0-.367-3.64-.84-7.31a.812.812 0 01-.017-.159v-.023c0-.236.11-.444.282-.575V1.55a3.246 3.246 0 00-2.497 3.17v7.767h.315c.394 0 .713.323.713.723 0 .03-.003.1-.007.135a639.68 639.68 0 00-.927 7.411c.006 1.15.766 1.419 1.401 1.426h.178zm2.037-8.464c.444 3.519.777 6.857.78 6.89.004 2.202-1.502 2.989-2.793 3.016h-.225c-1.291-.017-2.8-.8-2.8-2.955.003-.08.417-3.546.833-6.736h-.221a.717.717 0 01-.713-.723V4.72c0-2.589 2.08-4.693 4.635-4.693.394 0 .713.323.713.723v12.46c0 .198-.08.377-.209.508z" fill="#5CB615" fill-rule="nonzero"/></svg>
